X:158
T:Freddie Kimmel's
R:hornpipe
S:Aoife N\'i Chaoimh & Paudie O'Connor on Youtube
H:Third part cf "Johnston's Hornpipe" #91
Z:id:hn-hornpipe-158
M:C|
L:1/8
K:D
AG | FAfe dcBA | GBef gfed | cBAa geBc | (3ded (3cdc (3BcB AG |
FAfe dcBA | GBef gfed | cBAa geBc | d2 (3cde d2 :|
|: (3ABc | d2D2 DFAd | B2G2 E3d | (3cdc (3BcB AGFE | DEFG AB (3cBA |
d2D2 DFAd | B2G2 E3d | (3cdc (3BcB ABce | d2c2 d2 :|
|: de | f2de f2de | fdad bdad | (3cBA eA fAeA | (3Bcd eg bage |
f2de f2de | fdad bdad | cdeg bage | d2 (3cde d2 :|

